!!!OTL: 5. Des Vaterlandes Hochgeſang.
!!!COM: A. Methfessel
!!!ODT: 1818
!!!ARE: Europa, Mitteleuropa, Deutschland
!!!SCT: B0005
!!!TXL: @@DE
!!!YEM: Copyright 1995, estate of Helmut Schaffrath.
**kern	**text
*ICvox	*
*Ivox	*
*M4/4	*
*met(c)	*
*k[f#]	*
*G:	*
!LO:TX:a:t=Kräftig und feierlich.	!
{4d	Stimmt
=1	=1
4.g	an
8d	mit
4g	hel-
4a	-lem
=2	=2
4.b/	ho-
8a	-hen
4g}	Klang,
{4a	ſtimmt
=3	=3
4b	an
4a	das
4b	Lied
4cc	der
=4	=4
(4.dd	Lie-
8cc)	.
4b}	-der,
{4g	des
=5	=5
4.ee	Va-
8cc	-ter-
4g	-lan-
4ee	-des
=6	=6
4.dd	Hoch-
8b	-ge-
4g}	-ſang,
{4d	das
=7	=7
4e	Wald-
4f#	-thal
4g	hall
4cc	ihn
=8	=8
(2b	wi-
2a)	.
=9	=9
2g	-der.
4r}	.
==	==
!!!AGN: politisch, national, Vaterlands - Lied
!!!GTL: Vaterlandslieder und Heimathgrüße
!!!ONB: ESAC (Essen Associative Code) Database: BOEHME
!!!AMT: simple quadruple
!!!AIN: vox
!!!EED: Helmut Schaffrath
!!!EEV: 1.0
!!Text: Matthias Claudius
!!!URL-scan: https://archive.org/details/BoehmeVtLieder1895/page/n29/mode/2up
!!!ENC: Anna Maria Matuszewska
!!!EEV: 2024/13/06
*-	*-
